X: 80
M: C|
L: 1/8
K: A
E2CE A,ECE | A,ECE FB,B,F |\
E2CE A,ECE | ceBd cAA :|
|: e |\
c/B/A eA fAeA | c/B/A eA fBBd |\
c/B/A eA fAeA | EFAB cAAc |
c/B/A eA fAeA | c/B/A eA fBBd |\
ceAc dfBd | EFAB cAA H:|

